X: 20711
T: Phillis's Complaint
%R: air, jig
B: James Oswald "The Caledonian Pocket Companion" v.2 p.71 #1
Z: 2019 John Chambers <jc:trillian.mit.edu>
M: 6/8
L: 1/8
K: D
"_Plaintive"A |\
d>ed f<af | {f}e3 z2a | Tf>ed B>AB | d3 z2A |\
d>ed (f<a)f | {f}e3 z2d' | Tc'>ba Tf>ef | a3 z2 :|
|: a |\
a>gf a>b=c' | b3 z2d' | {b}a>gf e>de/f/ | A3 z2A |\
Bde fd'b | {b}a3 z2g | Tf>ed TB>AB | d3 z2 :|
